X:1
T:St. Rotolf, 886
T:St. Rotolf, 886
T:John Henry Gower, 1890
T:Public Domain Courtesy of the Cyber Hymnal™
C:John Henry Gower, 1890
Z:Public Domain
Z:Courtesy of the Cyber Hymnal™
%%score ( 1 2 ) ( 3 4 )
L:1/8
Q:1/4=113
M:4/4
K:G
V:1 treble 
V:2 treble 
V:3 bass 
V:4 bass 
V:1
 [GB]2 | [Gd]2 [GB]2 [FB]2 [FA]2 | [EG]2 [FA]2 [GB]2 [FG]2 | [Ee]2 [Gd]2 [GB]2 G2 | %4
 [FA]3 [GB] [FA]4 | [GB]3 [Fc] [Gd]2 (BG) | [FA]4 G2 |] %7
V:2
 x2 | x8 | x8 | x6 G2 | x8 | x6 G2 | x4 G2 |] %7
V:3
 [G,D]2 | [B,D]2 [G,D]2 [D,D]2 [D,C]2 | [E,B,]2 [D,D]2 [G,D]2 ([A,C][B,D]) | %3
 C2 [B,D]2 [G,D]2 [E,^C]2 | [D,D]3 [G,D] [D,D]4 | [G,D]3 [A,D] [B,D]2 ([G,D][E,^C]) | %6
 (D2 C2) [G,B,]2 |] %7
V:4
 x2 | x8 | x8 | ^C2 x6 | x8 | x8 | D,4 x2 |] %7

